svgs/1F60C.svg

<svg xmlns="http://www.w3.org/2000/svg" xmlns:xlink="http://www.w3.org/1999/xlink" preserveAspectRatio="none" viewBox="0 0 72 72"><defs><path id="a" fill="#FCC21B" d="M36 5.45q-22.35 0-31.1 20.6Q.1 37.3.1 52.5q0 5.85 10.55 9.95Q21.1 66.6 36 66.6q14.85 0 25.35-4.15 10.5-4.1 10.5-9.95 0-15.2-4.75-26.45Q58.3 5.45 36 5.45z"/><path id="b" fill="#2F2F2F" d="M86.4 86.65q.95-.95.9-2.3 0-1.35-.95-2.3-1-.95-2.3-.95-1.35.05-2.3 1-1.8 1.75-4.8 3.35-6 3.15-13.1 3.15-7.05 0-13.05-3.15-4.65-3.2-4.8-3.35-.95-.95-2.3-1-1.3 0-2.3.95-.95.95-1 2.3 0 1.3.95 2.3.2.15 6.1 4.35 7.55 4.1 16.4 4.1 8.85 0 16.45-4.1 3.85-2.1 6.1-4.35z"/><path id="d" fill="#2F2F2F" d="M96.15 52.4q-.85 1.35-2.45 2.55-3.1 2.4-7.25 2.4-4.1 0-7.25-2.4-2.35-2.45-2.45-2.6-.75-1.3-2.3-1.3-.7 0-1.4.4-.95.55-1.25 1.65-.3 1.1.25 2.05.1.15 3.6 3.95 4.7 3.7 10.8 3.7 6.15 0 10.8-3.7 2.35-1.85 3.6-3.95.55-.95.25-2.05-.25-1.05-1.25-1.65-.95-.55-2.05-.3-1.1.3-1.65 1.25z"/><path id="e" fill="#2F2F2F" d="M28.1 51.45q-.95.55-1.25 1.65-.3 1.1.25 2.05.1.2 3.6 3.95 4.65 3.7 10.8 3.7t10.8-3.7q2.85-2.25 3.55-3.95.6-.95.3-2.05-.25-1.1-1.25-1.65-.95-.6-2.05-.3-1.1.25-1.65 1.25-.75 1.25-2.35 2.5-3.15 2.45-7.35 2.45-4.15 0-7.25-2.4-2.35-2.45-2.4-2.55-.85-1.35-2.4-1.35-.65 0-1.35.4z"/><path id="c" fill="none" stroke="#2F2F2F" stroke-linecap="round" stroke-linejoin="round" stroke-width="3" d="M47.4 19.95q5.55-.3 8.9 5.5m-31.65-5.5q-5.569-.293-8.9 5.5"/></defs><use xlink:href="#a"/><use transform="translate(.1 .95) scale(.5625)" xlink:href="#b"/><use transform="matrix(1 0 0 .69412 0 6.95)" xlink:href="#c"/><use transform="matrix(.56247 0 0 .56247 0 4.5)" xlink:href="#d"/><use transform="matrix(.56247 0 0 .56247 0 4.5)" xlink:href="#e"/></svg>

<svg xmlns="http://www.w3.org/2000/svg" version="1.1" xmlns:xlink="http://www.w3.org/1999/xlink" preserveAspectRatio="none" x="0px" y="0px" width="72px" height="72px" viewBox="0 0 72 72">
<defs>
<g id="Layer0_0_FILL">
<path fill="#FCC21B" stroke="none" d="
M 36 5.45
Q 13.65 5.45 4.9 26.05 0.1 37.3 0.1 52.5 0.1 58.35 10.65 62.45 21.1 66.6 36 66.6 50.85 66.6 61.35 62.45 71.85 58.35 71.85 52.5 71.85 37.3 67.1 26.05 58.3 5.45 36 5.45 Z"/>
</g>

<g id="Layer0_1_FILL">
<path fill="#2F2F2F" stroke="none" d="
M 86.4 86.65
Q 87.35 85.7 87.3 84.35 87.3 83 86.35 82.05 85.35 81.1 84.05 81.1 82.7 81.15 81.75 82.1 79.95 83.85 76.95 85.45 70.95 88.6 63.85 88.6 56.8 88.6 50.8 85.45 46.15 82.25 46 82.1 45.05 81.15 43.7 81.1 42.4 81.1 41.4 82.05 40.45 83 40.4 84.35 40.4 85.65 41.35 86.65 41.55 86.8 47.45 91 55 95.1 63.85 95.1 72.7 95.1 80.3 91 84.15 88.9 86.4 86.65 Z"/>
</g>

<g id="Layer0_3_MEMBER_0_FILL">
<path fill="#2F2F2F" stroke="none" d="
M 96.15 52.4
Q 95.3 53.75 93.7 54.95 90.6 57.35 86.45 57.35 82.35 57.35 79.2 54.95 76.85 52.5 76.75 52.35 76 51.05 74.45 51.05 73.75 51.05 73.05 51.45 72.1 52 71.8 53.1 71.5 54.2 72.05 55.15 72.15 55.3 75.65 59.1 80.35 62.8 86.45 62.8 92.6 62.8 97.25 59.1 99.6 57.25 100.85 55.15 101.4 54.2 101.1 53.1 100.85 52.05 99.85 51.45 98.9 50.9 97.8 51.15 96.7 51.45 96.15 52.4 Z"/>
</g>

<g id="Layer0_3_MEMBER_1_FILL">
<path fill="#2F2F2F" stroke="none" d="
M 28.1 51.45
Q 27.15 52 26.85 53.1 26.55 54.2 27.1 55.15 27.2 55.35 30.7 59.1 35.35 62.8 41.5 62.8 47.65 62.8 52.3 59.1 55.15 56.85 55.85 55.15 56.45 54.2 56.15 53.1 55.9 52 54.9 51.45 53.95 50.85 52.85 51.15 51.75 51.4 51.2 52.4 50.45 53.65 48.85 54.9 45.7 57.35 41.5 57.35 37.35 57.35 34.25 54.95 31.9 52.5 31.85 52.4 31 51.05 29.45 51.05 28.8 51.05 28.1 51.45 Z"/>
</g>

<path id="Layer0_2_1_STROKES" stroke="#2F2F2F" stroke-width="3" stroke-linejoin="round" stroke-linecap="round" fill="none" d="
M 47.4 19.95
Q 52.95 19.65 56.3 25.45
M 24.65 19.95
Q 19.08125 19.65703125 15.75 25.45"/>
</defs>

<g id="Layer_1">
<g transform="matrix( 1, 0, 0, 1, 0,0) ">
<use xlink:href="#Layer0_0_FILL"/>
</g>

<g transform="matrix( 0.5625, 0, 0, 0.5625, 0.1,0.95) ">
<use xlink:href="#Layer0_1_FILL"/>
</g>

<g transform="matrix( 1, 0, 0, 0.694122314453125, 0,6.95) ">
<use xlink:href="#Layer0_2_1_STROKES"/>
</g>

<g transform="matrix( 0.562469482421875, 0, 0, 0.562469482421875, 0,4.5) ">
<use xlink:href="#Layer0_3_MEMBER_0_FILL"/>
</g>

<g transform="matrix( 0.562469482421875, 0, 0, 0.562469482421875, 0,4.5) ">
<use xlink:href="#Layer0_3_MEMBER_1_FILL"/>
</g>
</g>
</svg>
